!!!COM: Bach, Johann Sebastian
!!!OTL: Fuga
!!!OMV: 2
!!!SCT: BWV 533
!!!SCA: Thematisches-systematisches Verzeichnis der musikalischen Werke von Johann Sebastian Bach (Schmieder 1990)
**kern	**kern	**kern	**kern
*MM76	*MM76	*MM76	*MM76
*k[f#]	*k[f#]	*k[f#]	*k[f#]
*M4/4	*M4/4	*M4/4	*M4/4
*tb32	*tb32	*tb32	*tb32
=1	=1	=1	=1
1r	1r	8r	1r
.	.	8B	.
.	.	4B	.
.	.	8r	.
.	.	8B	.
.	.	4B	.
=2	=2	=2	=2
1r	1r	8r	1r
.	.	8B	.
.	.	8E	.
.	.	8F#	.
.	.	8G	.
.	.	8B	.
.	.	8E	.
.	.	8F#	.
=3	=3	=3	=3
1r	8r	4G	1r
.	8E	.	.
.	4E	8r	.
.	.	16B	.
.	.	16F#	.
.	8r	4G	.
.	8E	.	.
.	4E	8r	.
.	.	16B	.
.	.	16F#	.
=4	=4	=4	=4
1r	8r	4G	1r
.	8E	.	.
.	8BB	8r	.
.	8C#	8e	.
.	8D	8f#	.
.	8F#	8A#	.
.	8BB	16r	.
.	.	16B	.
.	8C#	16A	.
.	.	16G	.
=5	=5	=5	=5
1r	8D	8F#	1r
.	8D#	16B	.
.	.	16F#	.
.	8E	8G	.
.	8EE	16c	.
.	.	16G	.
.	8FF#	8A	.
.	8F#	16d	.
.	.	16A	.
.	8G	8B	.
.	8G#	16e	.
.	.	16B	.
=6	=6	=6	=6
1r	8A	8c	2r
.	8G	8B	.
.	8F#	8A	.
.	8E	8G	.
.	4D#	4F#	8r
.	.	.	8b
.	8r	8r	4b
.	8D#	8F#	.
=7	=7	=7	=7
1r	4E	4G	8r
.	.	.	8b
.	8r	8r	4b
.	8D#	16B	.
.	.	16F#	.
.	4E	4G	8r
.	.	.	8b
.	8r	8r	8e
.	8D#	16B	8f#
.	.	16F#	.
=8	=8	=8	=8
1r	8E	8B	8g
.	16BB	8d#	8b
.	16AA	.	.
.	8GG	8e	8e
.	8BB	8d#	8f#
.	8EE	4e	4g
.	16C	.	.
.	16GG	.	.
.	8AA	8r	8cc
.	8BB	8d#	8b
=9	=9	=9	=9
1r	8C	8e	8a
.	8BB	8d	8g
.	4AA	4c	8f#
.	.	.	8e
.	8BB	4B	4d#
.	16B	.	.
.	16A	.	.
.	8G	8B	16r
.	.	.	16d#
.	8F#	8A	16e
.	.	.	16f#
=10	=10	=10	=10
1r	4E 4B	8r	4g
.	.	8e	.
.	8r	4e	8r
.	8A	.	8cc
.	4G	8r	4b
.	.	8e	.
.	8r	4e	8r
.	8F#	.	8a
=11	=11	=11	=11
r1	4E	8r	4g
.	.	8e	.
.	16r	8B	8r
.	16E	.	.
.	16D	8c#	8a#
.	16C#	.	.
.	4BB	8d	[2b
.	.	8f#	.
.	16r	8b	.
.	16G	.	.
.	16F#	8c#	.
.	16E	.	.
=12	=12	=12	=12
2r	8F#	8d	16b]
.	.	.	16a#
.	8E	[8c#	16b
.	.	.	16cc#
.	4F#	8c#]	8.a#
.	.	16f#	.
.	.	16c#	16b
8r	2r	8d	8b
8F#	.	8A#	16ff#
.	.	.	16cc#
4F#	.	8B	8d
.	.	16f#	8a#
.	.	16c#	.
=13	=13	=13	=13
8r	1r	8d	8b
8F#	.	8A#	16ff#
.	.	.	16cc#
4F#	.	8B	8d
.	.	16f#	8a#
.	.	16c#	.
8r	.	4d	4b
8F#	.	.	.
8BB	.	8r	8r
8C#	.	8a#	8ee
=14	=14	=14	=14
8D	1r	8b	8ff#
8F#	.	8a#	8cc#
8B	.	4b	8dd
8C#	.	.	8ee
8D	.	4.b	8ff#
8E	.	.	16gg
.	.	.	16cc#
8F#	.	.	8.cc#
8FF#	.	8a#	.
.	.	.	16dd
=15	=15	=15	=15
4BB	1r	8b	16b
.	.	.	16cc
.	.	8B	16b
.	.	.	16a
4r	.	8e	16g
.	.	.	16a
.	.	8d	16f#
.	.	.	16g
2r	.	8c#	16a
.	.	.	16b
.	.	8A	16a
.	.	.	16g
.	.	8d	16f#
.	.	.	16g
.	.	8c	16e
.	.	.	16f#
=16	=16	=16	=16
1r	1r	8B	8g
.	.	8F#	16dd
.	.	.	16a
.	.	8G	8b
.	.	8G#	16ee
.	.	.	16b
.	.	8A	8cc#
.	.	8A#	16ff#
.	.	.	16cc#
.	.	8B	8dd#
.	.	8b	16gg
.	.	.	16dd#
=17	=17	=17	=17
1r	1r	8cc	8ee
.	.	8cc#	16aa
.	.	.	16ee
.	.	8dd	8ff#
.	.	8dd#	16bb
.	.	.	16ff#
.	.	8ee	8gg
.	.	16b	8dd#
.	.	16f#	.
.	.	8g	8ee
.	.	8g#	16ee
.	.	.	16b
=18	=18	=18	=18
1r	1r	16a	8cc
.	.	16b	.
.	.	16g	8b
.	.	16a	.
.	.	16f#	8a
.	.	16g	.
.	.	16e	8cc
.	.	16f#	.
.	.	8d#	8b
.	.	8B	16ff#
.	.	.	16a
.	.	8e	16g
.	.	.	16b
.	.	8g	16ee
.	.	.	16a#
=19	=19	=19	=19
4r	8r	4f#	4b 4dd#
.	8B	.	.
8r	4B	8r	8r 8r
8A	.	8f#	8b 8dd#
4G	8r	4g	4b 4ee
.	8B	.	.
8r	4B	8r	8r 8r
8D#	.	8f#	8a 8ff#
=20	=20	=20	=20
4E	8r	4e	4g 4b
.	8B	.	.
8r	8E	8r	8r 8r
8D#	8F#	8f#	8a 8b
4E	8G	4e	4g 4b
.	8B	.	.
8r	8E	8r	8r 8r
8BB	8F#	8d#	8a 8b
=21	=21	=21	=21
4E	8G	4e	4g 4b
.	16B	.	.
.	16G	.	.
8r	[4c	8r	8r 8r
8E	.	8e	8g 8cc
8F#	8c]	4.d	8a
8G	16B	.	16g
.	16c	.	16a
4D	4A	.	8.f#
.	.	8c	.
.	.	.	16f#
=22	=22	=22	=22
8E	4G	4BB	8g
8D	.	.	16f#
.	.	.	16g
8C	4G	[4c	8.e
8BB	.	.	.
.	.	.	16e
4AA	8a	4c]	8f#
.	16G	.	16e
.	16A	.	16f#
8BB	4F#	[4BB	8.d#
8AA	.	.	.
.	.	.	16d#
=23	=23	=23	=23
8GG	4.E	8.BB]	8e
8GG#	.	.	16b
.	.	16e	16e
4AA	.	8e	4cc
.	8F#	16a	.
.	.	16d#	.
2BB	8G	8e	[2b
.	16A	16f#	.
.	16G	16e	.
.	8F#	8.d#	.
.	8A	.	.
.	.	16e	.
=24	=24	=24	=24
4E	4G	4e	8b]
.	.	.	8ee
8r	8r	8r	4ee
8E	8B	8g#	.
4A	4c	4a	8r
.	.	.	8ee
8r	8r	8r	4ee
8B	8d	8g#	.
=25	=25	=25	=25
4c	4e	4a	8r
.	.	.	8ee
8r	8r	8a#	4ee
8c#	8e	8r	.
4B	4d	4b	8r
.	.	.	8f#
8r	8r	8r	8b
8A#	8e	8f#	8cc#
=26	=26	=26	=26
4B	4d	4f#	8dd
.	.	.	8ff#
8r	8r	8r	8b
8F#	8e	8a#	8cc#
8B	8f#	8b	8dd
8A	8c#	4f#	8ff#
4G	8d	.	8b
.	16c#	8e	8cc#
.	16B	.	.
=27	=27	=27	=27
2F#	8A#	4f#	8.dd
.	4B	.	.
.	.	.	16ee
.	.	4e	8.cc#
.	8A#	.	.
.	.	.	16b
4BB	4B	8d#	4b
.	.	8b	.
4r	8r	4b	8r
.	8d#	.	8ff#
=28	=28	=28	=28
1r	4e	8r	4gg
.	.	8b	.
.	8r	4b	8r
.	8d#	.	16bb
.	.	.	16ff#
.	4e	8r	4gg
.	.	8b	.
.	8r	8e	8r
.	8d#	8f#	16ff#
.	.	.	16b
=29	=29	=29	=29
1r	4e	8g	4ee
.	.	8b	.
.	8r	8e	8r
.	8d	8f#	16bb
.	.	.	16b
.	[4c	8g	8.ee
.	.	8e	.
.	.	.	16dd
.	8c]	[4a	[4cc
.	16F#	.	.
.	16D#	.	.
=30	=30	=30	=30
1r	[4G	8a]	4cc]
.	.	16f#	.
.	.	16d#	.
.	8G]	[4g	[4b
.	16E	.	.
.	16C#	.	.
.	[4F#	8g]	4b]
.	.	16e	.
.	.	16c#	.
.	8F#]	[4f#	[4a
.	16D#	.	.
.	16BB	.	.
=31	=31	=31	=31
1r	[4E	8f#]	4a]
.	.	16d#	.
.	.	16B	.
.	8E]	[4e	4g
.	16G	.	.
.	16E	.	.
.	8A	4.e]	8.f#
.	8B	.	.
.	.	.	16g
.	8c	.	8a
.	16B	[8e	16g
.	16A	.	16f#
=32	=32	=32	=32
1r	[4B	4e]	8g
.	.	.	16a
.	.	.	16g
.	16B]	4d#	4f#
.	16c	.	.
.	16B	.	.
.	16A	.	.
.	8G#	8d	[4e
.	8E	16c	.
.	.	16B	.
.	8A	8c	16e]
.	.	.	16g
.	8G	8B	16f#
.	.	.	16e
=33	=33	=33	=33
2r	8F#	8A	16b
.	.	.	8d#
.	8E	8G	.
.	.	.	[16e
.	8D#	8B	16e]
.	.	.	8f#
.	8E	8e	.
.	.	.	16g
8r	4B	4D#	4f#
8BB	.	.	.
4BB	8r	8r	8r
.	8A	8f#	8b 8dd#
*	*	*	*^
=34	=34	=34	=34	=34
8r	4G	4e	4b	4ee
8BB	.	.	.	.
4BB	8r	8r	8r	8r
.	8G	8e	8a#	8cc#
8r	4F#	4f#	8b	8.dd#
8BB	.	.	8a	.
.	.	.	.	16dd
8EE	4r	4r	8g	8ee
8FF#	.	.	8a	8dd#
=35	=35	=35	=35	=35
8GG	8r	8r	8b	8ee
8BB	8F#	8B	8d#	8f#
8EE	8E	4B	8e	8g
8FF#	8A	.	8d#	8a
8GG	8G	4r	4e	8b
8AA	[8F#	.	.	8cc
4BB	8F#]	8r	8.d#	8.f#
.	8A	8A	.	.
.	.	.	16e	16e
=36	=36	=36	=36	=36
1EE	1E	1G#	1B	1e
==	==	==	==	==
*-	*-	*-	*-	*-
!!!ENC: Peter van Kranenburg (peter@musical-style-recognition.net)
!!!END: 2006-11-9
